Gurmukhi/0A19.svg

<svg enable-background="new 0 0 336 592" viewBox="0 0 336 592" xmlns="http://www.w3.org/2000/svg"><path d="m147 274.165436c-6.831436-.003571-13.162979.016022-19.494255-.018158-7.063362-.038117-11.410515-4.295838-11.461327-11.45166-.089904-12.662308-.03939-25.325562-.056488-37.988419-.010223-7.572174-.017776-7.564621-7.815597-7.555115-7.497711.00914-14.996994-.088409-22.492417.042374-3.098755.054047-5.007492-.990143-5.973426-4.044983-1.002228-3.169617-2.376328-6.219711-3.516587-9.348038-2.64759-7.263733-1.699913-8.667358 5.868828-8.69284 6.489319-.021851 12.978813.014389 19.468231.014587 54.983475.001724 109.967087.054276 164.95018-.094238 4.680329-.012634 7.566132 1.116684 8.766175 5.880402.727356 2.887344 2.061554 5.619918 3.094391 8.432571 2.157745 5.876038.956756 7.743271-5.160737 7.781998-8.996917.056976-17.994506.012054-26.991806.01567-32.490234.013031-64.980941.119858-97.470169-.054718-4.962753-.026657-6.819976 1.282853-6.491119 6.460953.442627 6.969849.368454 14.001526.023132 20.982285-.233001 4.710647 1.146927 6.416122 6.09668 6.297088 13.155045-.316375 26.323883-.210663 39.485168-.07402 13.991333.145248 27.558014 2.446686 39.860108 9.556839 16.415649 9.48764 25.459228 23.838226 27.712402 42.641144 2.451172 20.455017-4.550842 37.991699-16.615295 53.86911-2.569779 3.381958-2.440994 5.502594.291641 8.540771 5.566956 6.189362 10.67897 12.785858 16.17511 19.04184 2.442154 2.779724 2.12825 4.567718-.589859 6.995392-9.370102 8.368927-9.272324 8.447693-17.373642-.967011-3.694229-4.293152-7.576111-8.429565-11.160599-12.81076-2.585586-3.160279-4.684662-3.588806-8.282883-.968994-16.3591 11.910736-34.637039 18.527038-55.06073 17.551239-17.350173-.828919-33.095687-6.260498-45.100685-19.46167-10.548629-11.599701-14.149238-25.200501-8.732063-40.263031 5.33181-14.825196 17.095985-22.118012 31.921661-24.74292 20.516724-3.632477 38.302292 3.456207 54.909897 14.806335 7.438828 5.083863 13.959488 11.278565 20.7883 16.832672.590591-.114257 1.042999-.060913 1.209625-.25412 10.364975-12.015502 14.906387-26.010589 12.479248-41.635986-2.109527-13.580627-13.233642-22.156006-29.355392-24.18573-17.765442-2.236725-35.606461-.64212-53.905701-1.130859m46.80072 71.548309c-8.720398-6.80545-17.88446-12.774872-29.003753-14.866455-5.598465-1.053101-11.254425-1.232971-16.827973.113037-11.109878 2.682953-18.518677 11.222351-18.580124 21.216187-.057449 9.344238 7.584778 18.720215 18.016327 21.388275 12.748459 3.26065 25.103638 1.204346 36.983597-3.958557 7.594894-3.300659 14.85141-7.232727 21.13208-13.676361-3.957596-3.465119-7.560623-6.619812-11.720154-10.216126z"/></svg>

<svg version="1.1" id="Layer_1" xmlns="http://www.w3.org/2000/svg" xmlns:xlink="http://www.w3.org/1999/xlink" x="0px" y="0px"
	 width="100%" viewBox="0 0 336 592" enable-background="new 0 0 336 592" xml:space="preserve">
<path fill="#000000" opacity="1.000000" stroke="none" 
	d="
M147.000000,274.165436 
	C140.168564,274.161865 133.837021,274.181458 127.505745,274.147278 
	C120.442383,274.109161 116.095230,269.851440 116.044418,262.695618 
	C115.954514,250.033310 116.005028,237.370056 115.987930,224.707199 
	C115.977707,217.135025 115.970154,217.142578 108.172333,217.152084 
	C100.674622,217.161224 93.175339,217.063675 85.679916,217.194458 
	C82.581161,217.248505 80.672424,216.204315 79.706490,213.149475 
	C78.704262,209.979858 77.330162,206.929764 76.189903,203.801437 
	C73.542313,196.537704 74.489990,195.134079 82.058731,195.108597 
	C88.548050,195.086746 95.037544,195.122986 101.526962,195.123184 
	C156.510437,195.124908 211.494049,195.177460 266.477142,195.028946 
	C271.157471,195.016312 274.043274,196.145630 275.243317,200.909348 
	C275.970673,203.796692 277.304871,206.529266 278.337708,209.341919 
	C280.495453,215.217957 279.294464,217.085190 273.176971,217.123917 
	C264.180054,217.180893 255.182465,217.135971 246.185165,217.139587 
	C213.694931,217.152618 181.204224,217.259445 148.714996,217.084869 
	C143.752243,217.058212 141.895020,218.367722 142.223877,223.545822 
	C142.666504,230.515671 142.592331,237.547348 142.247009,244.528107 
	C142.014008,249.238754 143.393936,250.944229 148.343689,250.825195 
	C161.498734,250.508820 174.667572,250.614532 187.828857,250.751175 
	C201.820190,250.896423 215.386871,253.197861 227.688965,260.308014 
	C244.104614,269.795654 253.148193,284.146240 255.401367,302.949158 
	C257.852539,323.404175 250.850525,340.940857 238.786072,356.818268 
	C236.216293,360.200226 236.345078,362.320862 239.077713,365.359039 
	C244.644669,371.548401 249.756683,378.144897 255.252823,384.400879 
	C257.694977,387.180603 257.381073,388.968597 254.662964,391.396271 
	C245.292862,399.765198 245.390640,399.843964 237.289322,390.429260 
	C233.595093,386.136108 229.713211,381.999695 226.128723,377.618500 
	C223.543137,374.458221 221.444061,374.029694 217.845840,376.649506 
	C201.486740,388.560242 183.208801,395.176544 162.785110,394.200745 
	C145.434937,393.371826 129.689423,387.940247 117.684425,374.739075 
	C107.135796,363.139374 103.535187,349.538574 108.952362,334.476044 
	C114.284172,319.650848 126.048347,312.358032 140.874023,309.733124 
	C161.390747,306.100647 179.176315,313.189331 195.783920,324.539459 
	C203.222748,329.623322 209.743408,335.818024 216.572220,341.372131 
	C217.162811,341.257874 217.615219,341.311218 217.781845,341.118011 
	C228.146820,329.102509 232.688232,315.107422 230.261093,299.482025 
	C228.151566,285.901398 217.027451,277.326019 200.905701,275.296295 
	C183.140259,273.059570 165.299240,274.654175 147.000000,274.165436 
M193.800720,345.713745 
	C185.080322,338.908295 175.916260,332.938873 164.796967,330.847290 
	C159.198502,329.794189 153.542542,329.614319 147.968994,330.960327 
	C136.859116,333.643280 129.450317,342.182678 129.388870,352.176514 
	C129.331421,361.520752 136.973648,370.896729 147.405197,373.564789 
	C160.153656,376.825439 172.508835,374.769135 184.388794,369.606232 
	C191.983688,366.305573 199.240204,362.373505 205.520874,355.929871 
	C201.563278,352.464752 197.960251,349.310059 193.800720,345.713745 
z"/>
</svg>
